X:29
T:Mr. Barclay
C:Alexander Walker
R:strathspey
S:Tune of the Month, Dec. 2001, Sivler Apple News 8
B:The Alexander Walker Collection
D: Joe Cormier, Informal Sessions
Z:Paul Stewart Cranford (P.S.C.), <http://www.cranfordpub.com>
Q:300
L:1/8
M:C
K:DAeo
A,|D/D/D D>E F>GA<d|c>dc>A G<cE>C|D/D/D D>E F>GA<d|c>AG<E D/D/D D>A,|  
D/D/D D>E F>GA<d|f<ag>e c>de<g|a<fg>e f<de>c|e<cg>e d/d/d d||  
A|d/d/d d2 d>f a2|g<cg>e c>eg>e|d/d/d d>^c d>e a2|g<cg>e d2 d>A|  
d/d/d d>^c d>e a2|g<cg>e c>de<g|a<fg>e f<de<c|A>Gc<E D/D/D D|]
